src/assets/Icons/Services1.svg

<svg width="80" height="80" viewBox="0 0 80 80" fill="none" xmlns="http://www.w3.org/2000/svg">
<path opacity="0.3" d="M80.5 40C80.5 62.0914 62.5914 80 40.5 80C18.4086 80 0.5 62.0914 0.5 40C0.5 17.9086 18.4086 0 40.5 0C62.5914 0 80.5 17.9086 80.5 40ZM11.4071 40C11.4071 56.0675 24.4325 69.0929 40.5 69.0929C56.5675 69.0929 69.5929 56.0675 69.5929 40C69.5929 23.9325 56.5675 10.9071 40.5 10.9071C24.4325 10.9071 11.4071 23.9325 11.4071 40Z" fill="#2F2E30"/>
<path opacity="0.3" d="M80 40C80 62.0914 62.0914 80 40 80C17.9086 80 0 62.0914 0 40C0 17.9086 17.9086 0 40 0C62.0914 0 80 17.9086 80 40ZM10.9071 40C10.9071 56.0675 23.9325 69.0929 40 69.0929C56.0675 69.0929 69.0929 56.0675 69.0929 40C69.0929 23.9325 56.0675 10.9071 40 10.9071C23.9325 10.9071 10.9071 23.9325 10.9071 40Z" fill="white"/>
<circle cx="40" cy="40" r="29" fill="black"/>
<path d="M40.0003 57.2728C49.5397 57.2728 57.273 49.5395 57.273 40C57.273 30.4606 49.5397 22.7273 40.0003 22.7273C30.4608 22.7273 22.7275 30.4606 22.7275 40C22.7275 49.5395 30.4608 57.2728 40.0003 57.2728Z" stroke="white" stroke-width="2" stroke-linecap="round" stroke-linejoin="round"/>
<path d="M45.0914 34.547C44.762 33.9758 44.2834 33.505 43.707 33.1848C43.1305 32.8646 42.4777 32.7072 41.8186 32.7294H38.1823C37.2178 32.7294 36.2929 33.1124 35.611 33.7941C34.929 34.4759 34.5459 35.4005 34.5459 36.3647C34.5459 37.3288 34.929 38.2535 35.611 38.9353C36.2929 39.617 37.2178 40 38.1823 40H41.8186C42.783 40 43.708 40.383 44.3899 41.0648C45.0719 41.7465 45.455 42.6712 45.455 43.6354C45.455 44.5995 45.0719 45.5242 44.3899 46.2059C43.708 46.8877 42.783 47.2707 41.8186 47.2707H38.1823C37.5232 47.2929 36.8704 47.1354 36.2939 46.8153C35.7174 46.4951 35.2389 46.0242 34.9095 45.453" stroke="white" stroke-width="2.75" stroke-linecap="round" stroke-linejoin="round"/>
<path d="M40 28.1818V32.1212M40 47.8787V51.8181" stroke="white" stroke-width="2.75" stroke-linecap="round" stroke-linejoin="round"/>

</svg>

<svg xmlns="http://www.w3.org/2000/svg" width="80" height="80" fill="none" xmlns:v="https://vecta.io/nano"><path opacity=".3" d="M80.5 40c0 22.091-17.909 40-40 40S.5 62.091.5 40s17.909-40 40-40 40 17.909 40 40zm-69.093 0c0 16.068 13.025 29.093 29.093 29.093S69.593 56.068 69.593 40 56.568 10.907 40.5 10.907 11.407 23.933 11.407 40z" fill="#2f2e30"/><path opacity=".3" d="M80 40c0 22.091-17.909 40-40 40S0 62.091 0 40 17.909 0 40 0s40 17.909 40 40zm-69.093 0c0 16.068 13.025 29.093 29.093 29.093S69.093 56.068 69.093 40 56.068 10.907 40 10.907 10.907 23.933 10.907 40z" fill="#fff"/><circle cx="40" cy="40" r="29" fill="#000"/><g stroke="#fff" stroke-linejoin="round"><path d="M40 57.273c9.539 0 17.273-7.733 17.273-17.273S49.54 22.727 40 22.727 22.728 30.461 22.728 40 30.461 57.273 40 57.273z" stroke-width="2"/><path d="M45.091 34.547c-.329-.571-.808-1.042-1.384-1.362a3.63 3.63 0 0 0-1.888-.455h-3.636c-.965 0-1.889.383-2.571 1.065s-1.065 1.606-1.065 2.571.383 1.889 1.065 2.571A3.63 3.63 0 0 0 38.182 40h3.636c.964 0 1.889.383 2.571 1.065s1.065 1.606 1.065 2.571-.383 1.889-1.065 2.571-1.607 1.065-2.571 1.065h-3.636a3.64 3.64 0 0 1-1.888-.455 3.63 3.63 0 0 1-1.384-1.362M40 28.182v3.939m0 15.758v3.939" stroke-width="2.75" stroke-linecap="round"/></g></svg>
